src/assets/tokens/rusd-usdt0.svg

<svg width="900" height="600" viewBox="0 0 900 600" fill="none" xmlns="http://www.w3.org/2000/svg">
<path d="M600 299.97C600 379.543 568.396 455.857 512.141 512.123C455.886 568.39 379.587 600 300.03 600C260.633 600.008 221.619 592.253 185.218 577.179C148.817 562.105 115.742 540.006 87.8806 512.145C60.0194 484.284 37.9184 451.206 22.8397 414.8C7.76101 378.395 2.32566e-06 339.375 3.13385e-06 299.97C-0.00780861 245.908 14.5888 192.849 42.2465 146.401C69.9042 99.9535 109.595 61.843 157.124 36.0989C163.2 32.8172 169.276 29.7179 175.716 26.8617C214.746 9.08569 257.145 -0.0757432 300.03 0.000471649C372.282 0.000155716 442.107 26.0833 496.669 73.4557C551.232 120.828 586.866 186.306 597.023 257.855C597.995 264.661 598.724 271.468 599.271 278.396C599.818 285.324 600 292.738 600 299.97Z" fill="white"/>
<path d="M237.504 127.526V243.625H112.5V127.526H237.504ZM487.5 359.712H362.496V475.811H487.5V359.712V359.712ZM487.5 127.526H362.496L237.504 243.625H487.5V127.526ZM112.5 359.712V475.811H237.504V243.625L112.5 359.712Z" fill="black"/>
<path d="M599.978 599.343C765.652 599.343 899.957 465.175 899.957 299.671C899.957 134.167 765.652 0 599.978 0C434.305 0 300 134.167 300 299.671C300 465.175 434.305 599.343 599.978 599.343Z" fill="#00B988"/>
<path d="M446.58 143.025H753.375V211.132H634.067V279.239H565.89V211.132H446.58V143.025Z" fill="white"/>
<path d="M565.89 279.239V415.453H497.713V279.239H565.89Z" fill="white"/>
<path d="M634.075 415.453H702.242V279.239H634.065V415.453H565.898V483.56H634.075V415.453Z" fill="white"/>
</svg>

<svg xmlns="http://www.w3.org/2000/svg" fill="none" viewBox="0 0 900 600"><path fill="#fff" d="M600 299.97a300.06 300.06 0 0 1-87.859 212.153A299.94 299.94 0 0 1 300.03 600a299.93 299.93 0 0 1-212.15-87.855A300.08 300.08 0 0 1 0 299.97a300.1 300.1 0 0 1 42.246-153.569A300 300 0 0 1 157.125 36.099c6.076-3.282 12.152-6.381 18.592-9.237A298.65 298.65 0 0 1 300.03 0a299.93 299.93 0 0 1 196.639 73.456 300.05 300.05 0 0 1 100.354 184.399c.972 6.806 1.701 13.613 2.248 20.541s.729 14.342.729 21.574"/><path fill="#000" d="M237.504 127.526v116.099H112.5V127.526zM487.5 359.712H362.496v116.099H487.5zm0-232.186H362.496L237.504 243.625H487.5zm-375 232.186v116.099h125.004V243.625z"/><path fill="#00B988" d="M599.978 599.343c165.674 0 299.979-134.168 299.979-299.672S765.652 0 599.978 0 300 134.167 300 299.671s134.305 299.672 299.978 299.672"/><path fill="#fff" d="M446.58 143.025h306.795v68.107H634.067v68.107H565.89v-68.107H446.58z"/><path fill="#fff" d="M565.89 279.239v136.214h-68.177V279.239zm68.185 136.214h68.167V279.239h-68.177v136.214h-68.167v68.107h68.177z"/></svg>
